assets/img/icons/bicycle.svg

<svg xmlns="http://www.w3.org/2000/svg" viewBox="0 0 1034 671" width="115" height="75"><defs><clipPath clipPathUnits="userSpaceOnUse" id="cp1"><path d="M0 0h1034v671H0z"/></clipPath></defs><style></style><g id="Page 1" clip-path="url(#cp1)"><path id="Path 1" fill-rule="evenodd" fill="#686868" d="M1003.75 378.73c52.44 91.97 20.4 209.04-71.57 261.49-91.97 52.45-209.04 20.4-261.49-71.57-52.44-91.97-20.4-209.04 71.57-261.49l-49.97-116.58-156.45 293.35-.37.64a21.396 21.396 0 01-10.66 9.22c-1.18.47-2.4.83-3.65 1.08-1.41.29-2.84.43-4.27.43H387.63a191.976 191.976 0 01-29.55 82.95c-57.53 89.01-176.32 114.52-265.33 56.99C3.74 577.71-21.77 458.92 35.76 369.92c57.53-89.01 176.32-114.53 265.32-57l64.6-78.93-53.59-101.33h-51.2c-11.78 0-21.33-9.55-21.33-21.34 0-11.78 9.55-21.33 21.33-21.33h149.33c11.79 0 21.34 9.55 21.34 21.33 0 11.79-9.55 21.34-21.34 21.34h-49.96l42.67 80.47 266.35-76.1L625.29 34.4a21.348 21.348 0 01-1.73-8.41c0-11.78 9.55-21.33 21.33-21.33h106.67c11.78 0 21.33 9.55 21.33 21.33 0 11.78-9.55 21.33-21.33 21.33h-74.3l104.17 242.93a190.9 190.9 0 0155.46-8.26c68.97-.12 132.69 36.82 166.86 96.74zM645.02 188.32l-221.76 63.36 93.63 176.85 128.13-240.21zM481.54 452.66l-94.1-177.77-53.33 65.06a191.383 191.383 0 0153.52 112.71h93.91zm-137.02 42.66H196.89c-4.92 0-9.69-1.7-13.5-4.81-9.12-7.46-10.47-20.9-3.01-30.02l93.46-114.24a149.263 149.263 0 00-77.73-21.59c-82.48.21-149.16 67.25-148.94 149.72.21 82.48 67.25 149.16 149.72 148.94 74.15-.13 136.99-54.61 147.63-128zm-102.61-42.66h102.61a148.63 148.63 0 00-37.68-79.36l-64.93 79.36zM877.43 618c79.53-21.84 126.29-104.02 104.46-183.55-21.84-79.53-104.02-126.3-183.55-104.46l58.16 135.6c4.4 10.67-.5 22.91-11.04 27.61-10.77 4.79-23.38-.04-28.17-10.8l-58.14-135.66c-44.48 27.1-71.61 75.43-71.56 127.52.06 82.39 66.91 149.13 149.3 149.06 13.69.09 27.33-1.7 40.54-5.32z" stroke-width="10"/></g></svg>

<svg xmlns="http://www.w3.org/2000/svg" viewBox="0 0 1034 671" width="113" height="73">
	<defs>
		<clipPath clipPathUnits="userSpaceOnUse" id="cp1">
			<path d="M0 0L1034 0L1034 671L0 671Z" />
		</clipPath>
	</defs>
	<style>
		tspan { white-space:pre }
		.shp0 { fill: #686868;stroke: #f6f6f8;stroke-width: 10 } 
	</style>
	<g id="Page 1" clip-path="url(#cp1)">
		<path id="Path 1" fill-rule="evenodd" class="shp0" d="M1003.75 378.73C1056.19 470.7 1024.15 587.77 932.18 640.22C840.21 692.67 723.14 660.62 670.69 568.65C618.25 476.68 650.29 359.61 742.26 307.16L692.29 190.58L535.84 483.93L535.47 484.57C533.06 488.76 529.3 492.01 524.81 493.79C523.63 494.26 522.41 494.62 521.16 494.87C519.75 495.16 518.32 495.3 516.89 495.3L387.63 495.3C384.34 524.87 374.22 553.27 358.08 578.25C300.55 667.26 181.76 692.77 92.75 635.24C3.74 577.71 -21.77 458.92 35.76 369.92C93.29 280.91 212.08 255.39 301.08 312.92L365.68 233.99L312.09 132.66L260.89 132.66C249.11 132.66 239.56 123.11 239.56 111.32C239.56 99.54 249.11 89.99 260.89 89.99L410.22 89.99C422.01 89.99 431.56 99.54 431.56 111.32C431.56 123.11 422.01 132.66 410.22 132.66L360.26 132.66L402.93 213.13L669.28 137.03L625.29 34.4C624.15 31.74 623.56 28.88 623.56 25.99C623.56 14.21 633.11 4.66 644.89 4.66L751.56 4.66C763.34 4.66 772.89 14.21 772.89 25.99C772.89 37.77 763.34 47.32 751.56 47.32L677.26 47.32L781.43 290.25C799.41 284.78 818.1 282 836.89 281.99C905.86 281.87 969.58 318.81 1003.75 378.73ZM645.02 188.32L423.26 251.68L516.89 428.53L645.02 188.32ZM481.54 452.66L387.44 274.89L334.11 339.95C364.04 370.49 382.88 410.16 387.63 452.66L481.54 452.66ZM344.52 495.32L196.89 495.32C191.97 495.32 187.2 493.62 183.39 490.51C174.27 483.05 172.92 469.61 180.38 460.49L273.84 346.25C250.4 332.05 223.51 324.59 196.11 324.66C113.63 324.87 46.95 391.91 47.17 474.38C47.38 556.86 114.42 623.54 196.89 623.32C271.04 623.19 333.88 568.71 344.52 495.32ZM241.91 452.66L344.52 452.66C340.24 423.01 327.11 395.35 306.84 373.3L241.91 452.66ZM877.43 618C956.96 596.16 1003.72 513.98 981.89 434.45C960.05 354.92 877.87 308.15 798.34 329.99L856.5 465.59C860.9 476.26 856 488.5 845.46 493.2C834.69 497.99 822.08 493.16 817.29 482.4L759.15 346.74C714.67 373.84 687.54 422.17 687.59 474.26C687.65 556.65 754.5 623.39 836.89 623.32C850.58 623.41 864.22 621.62 877.43 618Z" />
	</g>
</svg>
